X:17922
T: Tuttle's Reel
S: irtrad-l, 9/94, Dan Beimborn
C: Trad.
M: 4/4
L: 1/8
D: Kevin Burke, "Up Close", plain setting.
K: Am
G,|:A,DDE FEFG|AcGc AddG,|A,DDE F2 Ad|cAGE FDDG,|A,DDE FEFG|
AcGc Adde|fddd dcAB|cAGE FD D :|
A|:cddA c2 cA|cddA cAGA|ccdA cAGD|EEcE EDDA|cddA c2 cA|
cddA c2 de|fddd dcAB|cAGE FD D :|
